!!!!SEGMENT: pl-wtm--r-730-1-m_moniuszko-stanislaw--kochanko-moja-na-co-nam-rozmowa.krn
!!!cenid: 18xx:1678
!!!COM: Moniuszko, Stanisław
!!!COM-rismid: pe30008351
!!!CDT: 1819/05/05-1872/06/04
!!!CNT: Polish
!!!OTL: Kochanko moja na co nam rozmowa
!!!PDT:
!!!AGN: Secular
!!!SMS-siglum: PL-Wtm
!!!SMS-shelfmark: R 730/1/M
!!!SMS-shelfwork: W
!!!SMS-variant:
!!!SMS-altvar:
!!!NIFC-rismid: 1001099657
!!!URL-scan: http://repozytorium.nifc.pl/skany/pl-wtm-nut--r730m-1-43
!!!ONB-nifc: Skan 0009. No. 750
!!!key:
**kern	**kern	**dynam	**kern	**text
*part3	*part2	*part2	*part1	*part1
*staff3	*staff2	*	*staff1	*staff1
*Iforte	*Iforte	*	*Ivox	*
*I"Fortepian	*I"Fortepian	*	*I"[Voice]	*
*I'pf	*I'pf	*	*I'[V]	*
*clefF4	*clefG2	*	*clefG2	*
*k[f#c#g#d#]	*k[f#c#g#d#]	*	*k[f#c#g#d#]	*
*E:	*E:	*	*E:	*
*M4/4	*M4/4	*	*M4/4	*
*met(C.)	*met(C.)	*	*met(C.)	*
=1	=1	=1	=1	=1
*	*	*below	*	*
!	!	!LO:DY:b:t=p.:rj	!	!
4E\ 4F# 4c#	(>4a#X\ 4gg#	p >	1r	.
8E\L 8F# 8c#	8a#\L) 8ff#	.	.	.
8E\J 8F# 8c#	8a#\J 8gg#	]	.	.
4E\ 4F# 4c#	(>4a#\ 4gg#	>	.	.
8E\L 8F# 8c#	8a#\L) 8ff#	.	.	.
8E\J 8F# 8c#	8a#\J 8gg#	]	.	.
=2	=2	=2	=2	=2
*	*^	*	*	*
*tremolo	*	*	*	*	*
*2\right	*	*	*	*	*
8E\ 8F# 8BL	8an'>\L 8gg#	2rFyy	.	1r	.
8E\ 8F# 8B	8a'>\ 8ff#	.	.	.	.
8E\ 8F# 8B	8a'>\ 8cc#	.	.	.	.
8E\ 8F# 8BJ	8a'>\J 8dd#	.	.	.	.
4E\ 4G# 4B	(<16ff#/LL	4g#\	.	.	.
.	16ee/	.	.	.	.
.	16dd#/	.	.	.	.
.	16cc#/JJ)	.	.	.	.
8B\L	8b/	8g#\	.	.	.
8E\J 8F# 8c#	8a#X\ 8gg#	8rAyy	.	.	.
*	*v	*v	*	*	*
=3	=3	=3	=3	=3
4E\ 4F# 4c#	(>4a#X\ 4gg#	>	1r	.
8E\L 8F# 8c#	8a#\L) 8ff#	.	.	.
8E\J 8F# 8cn	8an\J 8gg#	]	.	.
4E\ 4F# 4c	(>4a\ 4gg#	>	.	.
8E\L 8F# 8c	8a\L) 8ff#	.	.	.
8E\J 8F# 8B	8a\J 8gg#	]	.	.
=4	=4	=4	=4	=4
8E\ 8F# 8BL	8a'>\L 8gg#	.	1r	.
8E\ 8F# 8B	8a'>\ 8ff#	.	.	.
8E\ 8F# 8B	8a'>\ 8cc#	.	.	.
8E\ 8F# 8BJ	8a'>\J 8dd#	.	.	.
4E\ 4G# 4B	4g#\ 4ee	.	.	.
8r	8r	.	.	.
16D#X\LL	8g#\ 8b 8ee	.	.	.
16E\JJ	.	.	.	.
!!LO:LB:g=original
=5	=5	=5	=5	=5
8EE/L	8r	.	2r	.
16D#X/L	8a\ 8cc# 8ee	.	.	.
16E/JJ	.	.	.	.
8EE/L	8r	.	.	.
16D#/L	8g#\ 8b 8ee	.	.	.
16E/JJ	.	.	.	.
8EE/	2r	.	8r	.
8r	.	.	8g#/	Ko-
4r	.	.	8g#/	-chan-
.	.	.	8g#/	-ko
=6	=6	=6	=6	=6
!	!	!LO:DY:b:t=p.:rj	!	!
8E\	8r	p	4.g#/	mo-
8r	8e/ 8g#	.	.	.
8D#\	8r	.	.	.
8r	8e/ 8g#	.	8g#/	-ja
8C#/	8r	.	8b/	na
8r	8e#X/ 8g#	.	8b/	co
8BB/	8r	.	8a/	nam
8r	8e#/ 8g#	.	8g#/	ro-
=7	=7	=7	=7	=7
8AA/	8r	.	4g#/	-mo-
8r	8f#/ 8a	.	.	.
8GG#/	8r	.	8f#/	-wa
8r	8g#/ 8b	.	8r	.
8GG#/	8a/ 8cc#/	.	4a/	Cze-
8r	8r	.	.	.
4r	8a/L 8cc#	.	8a/	-mu
.	8g#/J 8b	.	8g#/	chcąc
=8	=8	=8	=8	=8
8BB\L	(<4g#/ 4b	.	4g#/	z to-
8D#\J 8B	.	.	.	.
*rep	*	*	*	*
8BB\L	8f#/L) 8a	.	8f#/	-bą
8D#\J 8B	8g#/J 8b	.	8g#/	u-
*Xrep	*	*	*	*
8BB\L	(<4g#/ 4b	.	4g#/	-czu-
8D#\J 8B	.	.	.	.
*rep	*	*	*	*
8BB\L	8f#/L) 8a	.	8f#/	-cia
8D#\J 8B	8g#/J 8b	.	8g#/	po-
*Xrep	*	*	*	*
=9	=9	=9	=9	=9
!	!LO:TX:t=P:problem=mixed beam	!	!	!
!	!LO:TX:t=P:problem=niejednoznaczne rozpoczecie łuku	!	!	!
8E\L	(>8.f#/L 8.a/	.	4e/	-dzielić,
8G#\ 8B	.	.	.	.
.	16dd#\Jk	.	.	.
!	!LO:TUP:a:problem=klamra łukowa	!	!	!
8E\	12ff#\L	.	4r	.
.	12ee\	.	.	.
8A\J 8c#	.	.	.	.
.	12cc#\J)	.	.	.
8E\ 8G# 8B	8b\	.	8r	.
8r	8r	.	8g#/	Nie
4r	4r	.	8g#/	mo-
.	.	.	8g#/	-gę
!!LO:LB:g=original
=10	=10	=10	=10	=10
8E\	8r	.	4.g#/	pro-
8r	8e/ 8g#	.	.	.
8D#\	8r	.	.	.
8r	8e/ 8g#	.	8g#/	-sto
8C#/	8r	.	8g#/	du-
8r	8e/ 8g#	.	8g#/	-szy
8BB/	8r	.	8g#/	w du-
8r	8e#X/ 8g#	.	8g#/	-szę
=11	=11	=11	=11	=11
*	*	*	*2\right	*
8AA/	8r	.	2b\	prze-
8r	8f#/ 8a	.	.	.
8GG#/	8r	.	.	.
8r	8g#/ 8b	.	.	.
8FF#/	8a/ 8cc#	.	8a/	-lać
8r	8r	.	8a/	Na
4r	4r	.	8a/	cóż
.	.	.	8a/	ią
=12	=12	=12	=12	=12
4GG#/	8r	.	4.g#/	je-
*	*tremolo	*	*	*
.	8e/ 8g# 8cc#L	.	.	.
4r	8e/ 8g# 8cc#	.	.	.
.	8e/ 8g# 8cc#J	.	8g#/	-szcze
*	*Xtremolo	*	*	*
!LO:TX:t=P:problem=mixed beam	!	!	!	!
8GG#/L	8d#/L 8f#	.	8f#/	roz-
8G#\J	8f#/ 8a	.	8a/	-dra-
!LO:TX:t=P:problem=mixed beam	!	!	!	!
8BB#X/L	8e/ 8g#	.	8g#/	-biać
8G#\J	8d#/J 8f#	.	8f#/	na
=13	=13	=13	=13	=13
8C#/	8r	.	4.e/	sło-
8r	8c#/ 8e	.	.	.
8CC#/	8r	.	.	.
8r	8e\ 8g# 8ee	.	8ee\	-wa
8AAA#X/	8r	.	8ff#\L	Na
8r	8f#\ 8a#X 8ee	.	8ee\J	.
!LO:SIC:v:s=AA#	!	!	!	!
8AA/	8r	.	8dd#\	cóż
8r	8f##X\ 8cc# 8ee	.	8cc#\	ią
=14	=14	=14	=14	=14
*	*	*	*^	*
!LO:TX:t=P:problem=mixed beam	!	!	!	!	!
8BB/L	8r	.	4cc#\	4rFyy	je-
8B\	8g#/L 8b	.	.	.	.
8B\	8g#/ 8b	.	8b/	8b\L	-szcze
8B\J	8e/J 8g#	.	8g#/	8g#\J	roz-
2BB/	2B/ 2f#	.	4b/	2rAyy	-dra-
.	.	.	8a/	.	-biać
.	.	.	8d#/	.	na
*	*	*	*v	*v	*
!!LO:PB:g=original
=15	=15	=15	=15	=15
.	.	.	8qf#/	.
8E\L 8G#	8B/ 8e	.	4e/	słowa
8G#\ 8B 8e	8r	.	.	.
8G#\ 8B 8e	8r	.	4r	.
8G#\J 8B 8e	8e\ 8ee	<	.	.
8G#\ 8B 8eL	8f#\L 8ff#	.	8r	.
8G#\ 8B 8e	8g#\ 8gg#	.	8g#/	Któ-
8G#\ 8B 8e	8a\ 8aa	.	8a/	-re
8G#\ 8B 8eJ	8b\J 8bb	[[	8b/	nim
=16	=16	=16	=16	=16
!	!LO:SIC:v:s=ccn	!	!	!
8E\ 8A 8cn 8d#L	(>4cc#\ 4cccn	>	4ccn\	słuch
8E\ 8A 8cn 8d#	.	.	.	.
8E\ 8A 8cn 8d#	8ff#\L)	.	8f#/	Twóy
!	!LO:SIC:v:s=ccn	!	!	!
8E\ 8A 8cn 8d#J	8cc#\J 8ccc	.	8cc\	i
8E\ 8A 8B 8d#L	(>4b\ 4bb	.	4b\	ser-
8E\ 8A 8B 8d#	.	.	.	.
8E\ 8A 8B 8d#	8ff#\L)	.	8f#/	-ce
8E\ 8A 8B 8d#J	8a\J 8aa	]	8a/	do-
=17	=17	=17	=17	=17
!LO:TX:t=P:problem=mixed beam	!	!	!	!
8EE/L	4g#\ 4gg#	.	4g#/	-ści-
8E\J 8G# 8B 8e	.	.	.	.
8E\ 8G# 8B 8eL	8r	.	8g#/	-gną
8E\ 8G# 8B 8e	8e\ 8ee	.	8r	.
8E\ 8G# 8B 8e	8f#\L 8ff#	<	8r	.
8E\ 8G# 8B 8e	8g#\ 8gg#	.	8g#/	W
8E\ 8G# 8B 8e	8a\ 8aa	.	8a/	u-
8E\ 8G# 8B 8eJ	8b\J 8bb	[[	8b/	-stach
=18	=18	=18	=18	=18
*	*	*	*^	*
8E 8A 8B 8d#L	(>4cc#\ 4ccc#	>	4cc#\	2rFyy	wię-
8E 8A 8B 8d#	.	.	.	.	.
8E 8A 8B 8d#	8ff#\L)	.	8f#/	.	-dnie-
8E 8A 8B 8d#	8cc#\J 8ccc#	.	8cc#\	.	-ją
8E 8A 8B 8d#	(>4b\ 4bb	.	4b/	8b\	i
8E 8A 8B 8d#	.	.	.	8b\	na
8E 8A 8B 8d#	8ff#\L)	.	8f#/	4ryy	powie-
8E 8A 8B 8d#J	8a\J 8aa	]]	8g#/	.	-trzu
*	*	*	*v	*v	*
=19	=19	=19	=19	=19
8E\ 8G# 8B 8e	8g#\ 8gg#	.	8e/	stygną
(>8G#\L	(<8e/L 8b	.	8r	.
8A\J)	8e/J) 8cc#	.	8r	.
(>8B#X\L	(<8f#/L 8a 8dd#	.	8a/	Ah
8c#\J)	8e/J) 8g# 8ee	.	8g#/	na
(>8d#\L	(<8f#/L 8b 8ff#	.	8b\	co
8e\J)	8g#/J) 8b 8gg#	.	8b\	nam
(>8f#\	(<8b/ 8dd# 8aa	.	8dd#\	roz-
!!LO:LB:g=original
=20	=20	=20	=20	=20
8g#\)	8b/) 8ee 8bb	.	8ee\L	-mo-
(>8f#\L	8b/L 8dd# 8aa	.	8dd#\J	.
8e\J)	8b/J 8ee 8gg#	.	8ee\	-wa
(>8d#\L	8g#/L 8b#X 8ff#	.	8cc#X\	ah
8c#\J)	8g#/J 8cc# 8ee	.	8cc#\L	na
(>8B\L	8e/L 8g# 8dd#	.	8dd#\J	.
8A\J)	8e/J 8a 8cc#	.	8cc#\	-co
!	!LO:SIC:s:v=bn	!	!	!
8G#\	8B/ 8e#X 8b#	.	8g#/	Ko-
=21	=21	=21	=21	=21
[>4F#\	(<4c#/ 4f# 4a	.	4b/	-chan-
*Xtremolo	*	*	*	*
8F#\L]	8c#/L 8f# 8a)	.	8a/	-ko
8B\J	8c#/J 8e#X 8g#	.	8g#/	ah
!LO:TX:t=P:problem=mixed beam	!	!	!	!
8A\L	(<8c#/L 8g#	.	8g#/	na
8AA/J	8f#/)	.	8f#/	co
!LO:TX:t=P:problem=mixed beam	!	!	!	!
8BB/L	(<8d#/ 8g#	.	8b/	nam
8A\J	8f#/J)	.	8a/	roz-
=22	=22	=22	=22	=22
8E\	8e/	.	4g#/	-mowa
(>8G#\L	(<8e/L 8b	.	.	.
8A\J)	8e/J) 8cc#	.	8r	.
(>8B#X\L	(<8f#/L 8a 8cc#	.	8a/	Ah!
8c#\J)	8e/J) 8g# 8ee	.	8g#/	na
(>8d#\L	(<8f#/L 8b 8ff#	.	8b/	co
8e\J)	8g#/J) 8b 8gg#	.	8b/	nam
!LO:TX:a:t=P:problem:problem=cross-measure beam	!LO:TX:a:t=P:problem:problem=cross-measure beam	!	!	!
(>8f#\	(<8b/ 8dd# 8aa	.	8dd#\	roz-
=23	=23	=23	=23	=23
8g#\)	8b/) 8ee 8bb	.	8ee\L	-mo-
(>8f#\L	(<8b/L 8dd# 8aa	.	8dd#\J	-wa,
8e\J)	8b/J) 8ee 8gg#	.	8ee\	ah
(>8d#\L	(<8g#/L 8b#X 8ff#	.	8b#X\	.
8c#\J)	8g#/J) 8cc# 8ee	.	8cc#\L	na
(>8B\L	(<8e/L 8g# 8dd#	.	8dd#\J	.
8A\J)	8e/J) 8a 8cc#	.	8cc#\	co
!LO:TX:a:t=P:problem:problem=cross-measure beam	!	!	!	!
!	!LO:SIC:v:s=bn	!	!	!
(>8G#\	8c#/ 8e#X 8b#	.	8g#/	Ko-
=24	=24	=24	=24	=24
8F#\)	4c#/ 4f# 4b	.	4b/	-chan-
8r	.	.	.	.
8G#\L	8c#/L 8f# 8a	.	8a/	-ko
8B\J	8c#/J 8e#X 8g#	.	8g#/	na
!LO:TX:t=P:problem=mixed beam	!	!	!	!
8A\L	8c#/L 8g#	.	8g#/	co
8AA/J	8f#/J	.	8f#/	nam
8.BB;</	8.c#;>/L 8.a	.	8.cc#;>\	.
16r	16B/Jk 16g#	.	16b\	roz-
!!LO:LB:g=original
=25	=25	=25	=25	=25
4E\	8e/	.	4e/	-mowa.
.	8ee'>\L	>	.	.
4r	(>8ee\	.	4r	.
.	8dd#\J	.	.	.
2r	8ddn\L	.	2r	.
.	8cc#\	.	.	.
.	8ccn\	.	.	.
.	8b\J)	]]	.	.
=26	=26	=26	=26	=26
*	*^	*	*	*
4E\ 4F# 4c#	4gg#/	4a#X\	>	1r	.
8E\L 8F# 8c#	8ff#/L	8a#\L	.	.	.
8E\J 8F# 8c#	8gg#/J	8a#\J	]	.	.
4E\ 4F# 4c#	4gg#/	4a#\	>	.	.
8E\L 8F# 8c#	8ff#/L	8a#\L	.	.	.
8E\J 8F# 8c#	8gg#/J	8a#\J	]]	.	.
=27	=27	=27	=27	=27	=27
*tremolo	*	*tremolo	*	*	*
*	*	*2\right	*	*	*
8E\ 8F# 8BL	8gg#/L	8an\L	.	1r	.
8E\ 8F# 8B	8ff#/	8an\	.	.	.
8E\ 8F# 8B	8cc#/	8an\	.	.	.
8E\ 8F# 8BJ	8dd#/J	8an\J	.	.	.
*Xtremolo	*	*	*	*	*
4E\ 4G# 4B	(<16ff#/LL	4g#\	.	.	.
.	16ee/	.	.	.	.
.	16dd#/	.	.	.	.
.	16cc#/JJ)	.	.	.	.
8B\L	8b/	8g#\	.	.	.
8E\J 8F# 8c#	8gg#/	8a#X\	.	.	.
=28	=28	=28	=28	=28	=28
4E\ 4F# 4c#	4gg#/	4a#X\	>	1r	.
8E\L 8F# 8c#	8ff#/L	8a#\L	.	.	.
8E\J 8F# 8cn	8gg#/J	8an\J	]]	.	.
4E\ 4F# 4c	4gg#/	4a\	>	.	.
*	*	*Xtremolo	*	*	*
8E\L 8F# 8c	8ff#/L	8a\L	.	.	.
8E\J 8F# 8B	8gg#/J	8a\J	]]	.	.
=29	=29	=29	=29	=29	=29
*tremolo	*	*tremolo	*	*	*
8E\ 8F# 8BL	8gg#/L	8a\L	.	1r	.
8E\ 8F# 8B	8ff#/	8a\	.	.	.
8E\ 8F# 8B	8cc#/	8a\	.	.	.
8E\ 8F# 8BJ	8dd#/J	8a\J	.	.	.
*Xtremolo	*Xtremolo	*	*	*	*
4E\ 4G# 4B	4ee/	4g#\	.	.	.
8r	8r	4rcyy	.	.	.
(>16D#X\LL	8g#'>\ 8b 8ee	.	.	.	.
16E\JJ	.	.	.	.	.
*	*v	*v	*	*	*
=30	=30	=30	=30	=30
8EE/L)	8r	.	1r	.
(>16D#/L	8e'>\ 8a 8cc#	.	.	.
16E/JJ	.	.	.	.
8EE/L)	8r	.	.	.
(>16D#/L	8e'>\ 8g# 8b	.	.	.
16E/JJ	.	.	.	.
8EE/)	8B'>/ 8e'> 8g#'>	.	.	.
8r	8r	.	.	.
4r	4r	.	.	.
==	==	==	==	==
*-	*-	*-	*-	*-
!!!system-decoration: [(s1)(s2,s3)]
!!!RDF**kern: > = above
!!!RDF**kern: < = below
!!!EED: Antoni Szymański
!!!EST: 2021-04-19
!!!AIN: 2 forte 1 vox
!!!ENC: Marcin Jachim
!!!END: 2021-03-30
